icons/core/user-remove.svg

<svg width="32" height="32" viewBox="0 0 32 32" fill="none" xmlns="http://www.w3.org/2000/svg">
<path fill-rule="evenodd" clip-rule="evenodd" d="M11.9998 3.99994C9.23833 3.99994 6.99976 6.23851 6.99976 8.99994C6.99976 11.7614 9.23833 13.9999 11.9998 13.9999C14.7612 13.9999 16.9998 11.7614 16.9998 8.99994C16.9998 6.23851 14.7612 3.99994 11.9998 3.99994ZM4.99976 8.99994C4.99976 5.13395 8.13376 1.99994 11.9998 1.99994C15.8657 1.99994 18.9998 5.13395 18.9998 8.99994C18.9998 12.8659 15.8657 15.9999 11.9998 15.9999C8.13376 15.9999 4.99976 12.8659 4.99976 8.99994ZM1.99976 23.9999C1.99976 20.6862 4.68605 17.9999 7.99976 17.9999H15.9998C19.3135 17.9999 21.9998 20.6862 21.9998 23.9999V29.9999H19.9998V23.9999C19.9998 21.7908 18.2089 19.9999 15.9998 19.9999H7.99976C5.79062 19.9999 3.99976 21.7908 3.99976 23.9999V29.9999H1.99976V23.9999ZM22 16H32V14H22V16Z" fill="black"/>
</svg>

<svg width="32" height="32" viewBox="0 0 32 32" xmlns="http://www.w3.org/2000/svg">
    <path fill-rule="evenodd" d="M12 4a5 5 0 100 10 5 5 0 000-10zM5 9a7 7 0 1114 0A7 7 0 015 9zM2 24a6 6 0 016-6h8a6 6 0 016 6v6h-2v-6a4 4 0 00-4-4H8a4 4 0 00-4 4v6H2v-6zm20-8h10v-2H22v2z"/>
</svg>
